static/assets/img/icons/theme/code/cmd.svg

<svg height="24" viewBox="0 0 24 24" width="24" xmlns="http://www.w3.org/2000/svg"><g fill="none" fill-rule="evenodd"><path d="m0 0h24v24h-24z" opacity="0"/><path d="m9 15h-1.5c-.82842712 0-1.5.6715729-1.5 1.5s.67157288 1.5 1.5 1.5 1.5-.6715729 1.5-1.5zm0 0v-6h6v6zm6 1.5c0 .8284271.6715729 1.5 1.5 1.5s1.5-.6715729 1.5-1.5-.6715729-1.5-1.5-1.5h-1.5zm1.5-7.5c.8284271 0 1.5-.67157288 1.5-1.5s-.6715729-1.5-1.5-1.5-1.5.67157288-1.5 1.5v1.5zm-7.5-1.5c0-.82842712-.67157288-1.5-1.5-1.5s-1.5.67157288-1.5 1.5.67157288 1.5 1.5 1.5h1.5zm2 5.5h2v-2h-2zm2-2v-3.5c0-1.93299662 1.5670034-3.5 3.5-3.5s3.5 1.56700338 3.5 3.5-1.5670034 3.5-3.5 3.5zm3.5 2c1.9329966 0 3.5 1.5670034 3.5 3.5s-1.5670034 3.5-3.5 3.5-3.5-1.5670034-3.5-3.5v-3.5zm-5.5 3.5c0 1.9329966-1.56700338 3.5-3.5 3.5s-3.5-1.5670034-3.5-3.5 1.56700338-3.5 3.5-3.5h3.5zm-3.5-5.5c-1.93299662 0-3.5-1.56700338-3.5-3.5s1.56700338-3.5 3.5-3.5 3.5 1.56700338 3.5 3.5v3.5z" fill="#000" fill-rule="nonzero"/></g></svg>

<svg width="24px" height="24px" viewBox="0 0 24 24" version="1.1" xmlns="http://www.w3.org/2000/svg" xmlns:xlink="http://www.w3.org/1999/xlink">
    <title>Icon For CMD</title>
    <g stroke="none" stroke-width="1" fill="none" fill-rule="evenodd">
        <rect opacity="0" x="0" y="0" width="24" height="24"></rect>
        <path d="M9,15 L7.5,15 C6.67157288,15 6,15.6715729 6,16.5 C6,17.3284271 6.67157288,18 7.5,18 C8.32842712,18 9,17.3284271 9,16.5 L9,15 Z M9,15 L9,9 L15,9 L15,15 L9,15 Z M15,16.5 C15,17.3284271 15.6715729,18 16.5,18 C17.3284271,18 18,17.3284271 18,16.5 C18,15.6715729 17.3284271,15 16.5,15 L15,15 L15,16.5 Z M16.5,9 C17.3284271,9 18,8.32842712 18,7.5 C18,6.67157288 17.3284271,6 16.5,6 C15.6715729,6 15,6.67157288 15,7.5 L15,9 L16.5,9 Z M9,7.5 C9,6.67157288 8.32842712,6 7.5,6 C6.67157288,6 6,6.67157288 6,7.5 C6,8.32842712 6.67157288,9 7.5,9 L9,9 L9,7.5 Z M11,13 L13,13 L13,11 L11,11 L11,13 Z M13,11 L13,7.5 C13,5.56700338 14.5670034,4 16.5,4 C18.4329966,4 20,5.56700338 20,7.5 C20,9.43299662 18.4329966,11 16.5,11 L13,11 Z M16.5,13 C18.4329966,13 20,14.5670034 20,16.5 C20,18.4329966 18.4329966,20 16.5,20 C14.5670034,20 13,18.4329966 13,16.5 L13,13 L16.5,13 Z M11,16.5 C11,18.4329966 9.43299662,20 7.5,20 C5.56700338,20 4,18.4329966 4,16.5 C4,14.5670034 5.56700338,13 7.5,13 L11,13 L11,16.5 Z M7.5,11 C5.56700338,11 4,9.43299662 4,7.5 C4,5.56700338 5.56700338,4 7.5,4 C9.43299662,4 11,5.56700338 11,7.5 L11,11 L7.5,11 Z" fill="#000000" fill-rule="nonzero"></path>
    </g>
</svg>
